X:265
T: Pride of Westmeath
S: B.Breathnach: "Ceol Rince na hEireann" II/61 (gan ainm)
Z: B.Black
L: 1/8
M: 12/8
Q: 375
R: slide
K: D
A|BcB A2G F2D D2G|F2D A2G F2D D2A|
BcB A2G F2D D2F|G2F EBc d3-d3|
BcB A2G F2D D2G|F2D A2G F2D D2A|
BcB A2G F2D D2F|G2F EBc d3-d2||
c|d2D c2A B2E E2G|F2D d2G F2D D2c|
d2D c2A B2E E2F|G2F EBc d3-d3|
d2D c2A B2E E2G|F2D d2G F2D D2c|
d2D c2A B2E E2F|G2F EBc d3-d2||

